packages/icons/svg/Fill/layout.svg

<svg fill="none" height="24" viewBox="0 0 24 24" width="24" xmlns="http://www.w3.org/2000/svg"><path clip-rule="evenodd" d="m21 8v-2c0-1.654-1.346-3-3-3h-12c-1.654 0-3 1.346-3 3v2zm-18 1.99993v7.99997c0 1.654 1.346 3 3 3h5v-10.99997zm10 10.99997v-10.99997h8v7.99997c0 1.654-1.346 3-3 3z" fill="#6b7280" fill-rule="evenodd"/></svg>

<svg width="24" height="24" viewBox="0 0 24 24" fill="none" xmlns="http://www.w3.org/2000/svg">
<g id="Icon/Fill/layout">
<path id="Mask" fill-rule="evenodd" clip-rule="evenodd" d="M21 8V6C21 4.346 19.654 3 18 3H6C4.346 3 3 4.346 3 6V8H21ZM3 10V18C3 19.654 4.346 21 6 21H11V10H3ZM13 21V10H21V18C21 19.654 19.654 21 18 21H13Z" fill="#000000"/>
</g>
</svg>
